public/img/step-arrow.svg

<svg width="224" height="16" viewBox="0 0 224 16" fill="none" xmlns="http://www.w3.org/2000/svg">
<path d="M223.707 8.70711C224.098 8.31658 224.098 7.68342 223.707 7.29289L217.343 0.928932C216.953 0.538408 216.319 0.538408 215.929 0.928932C215.538 1.31946 215.538 1.95262 215.929 2.34315L221.586 8L215.929 13.6569C215.538 14.0474 215.538 14.6805 215.929 15.0711C216.319 15.4616 216.953 15.4616 217.343 15.0711L223.707 8.70711ZM0 9H5.06818V7H0V9ZM15.2045 9H25.3409V7H15.2045V9ZM35.4773 9H45.6136V7H35.4773V9ZM55.75 9H65.8864V7H55.75V9ZM76.0227 9H86.1591V7H76.0227V9ZM96.2955 9H106.432V7H96.2955V9ZM116.568 9H126.705V7H116.568V9ZM136.841 9H146.977V7H136.841V9ZM157.114 9H167.25V7H157.114V9ZM177.386 9H187.523V7H177.386V9ZM197.659 9H207.796V7H197.659V9ZM217.932 9H223V7H217.932V9Z" fill="#476FB2"/>
</svg>

<svg width="224" height="16" fill="none" xmlns="http://www.w3.org/2000/svg"><path d="M223.707 8.707a1 1 0 000-1.414L217.343.929a1 1 0 10-1.414 1.414L221.586 8l-5.657 5.657a1 1 0 101.414 1.414l6.364-6.364zM0 9h5.068V7H0v2zm15.204 0h10.137V7H15.204v2zm20.273 0h10.137V7H35.477v2zM55.75 9h10.136V7H55.75v2zm20.273 0h10.136V7H76.023v2zm20.273 0h10.136V7H96.296v2zm20.272 0h10.137V7h-10.137v2zm20.273 0h10.136V7h-10.136v2zm20.273 0h10.136V7h-10.136v2zm20.272 0h10.137V7h-10.137v2zm20.273 0h10.137V7h-10.137v2zm20.273 0H223V7h-5.068v2z" fill="#476FB2"/></svg>
